Newaita-dark/apps/64/diffuse.svg

<svg height="64pt" viewBox="0 0 64 64" width="64pt" xmlns="http://www.w3.org/2000/svg" xmlns:xlink="http://www.w3.org/1999/xlink"><linearGradient id="a"><stop offset="0" stop-opacity=".313726"/><stop offset=".222222" stop-opacity=".27451"/><stop offset="1" stop-opacity="0"/></linearGradient><radialGradient id="b" cx="450.908936" cy="189.579361" gradientTransform="matrix(.00000035 -.156265 -.281277 -.0000002 84.415649 127.190665)" gradientUnits="userSpaceOnUse" r="21.166656" xlink:href="#a"/><radialGradient id="c" cx="450.908936" cy="189.579361" gradientTransform="matrix(-.00000035 .156265 .281277 .0000002 -20.909582 -15.054958)" gradientUnits="userSpaceOnUse" r="21.166656" xlink:href="#a"/><radialGradient id="d" cx="450.908936" cy="189.579361" gradientTransform="matrix(-.00000035 -.156265 .281277 -.0000002 -20.909582 127.190665)" gradientUnits="userSpaceOnUse" r="21.166656" xlink:href="#a"/><radialGradient id="e" cx="450.908936" cy="189.579361" gradientTransform="matrix(.00000035 .156265 -.281277 .0000002 84.415646 -15.054959)" gradientUnits="userSpaceOnUse" r="21.166656" xlink:href="#a"/><linearGradient id="f" gradientTransform="matrix(.0883968 -.0883968 .0883968 .0883968 7.370257 51.718775)" gradientUnits="userSpaceOnUse" x1="111.280739" x2="395.655518" y1="164.552521" y2="-119.822243"><stop offset="0" stop-color="#ffa726"/><stop offset="1" stop-color="#ffb74d"/></linearGradient><linearGradient id="g" gradientUnits="userSpaceOnUse" x1="31.75304412463" x2="31.753048" y1="57.39091099994" y2="4.469165"><stop offset="0" stop-color="#424242"/><stop offset="1" stop-color="#616161"/></linearGradient><path d="m31.753906 56.066406h5.292969v-2.644531h-5.292969zm0 0" fill="url(#b)"/><path d="m31.753906 56.066406h-5.292968v2.648438h5.292968zm0 0" fill="url(#c)"/><path d="m31.753906 56.066406h-5.292968v-2.644531h5.292968zm0 0" fill="url(#d)"/><path d="m31.753906 56.066406h5.292969v2.648438h-5.292969zm0 0" fill="url(#e)"/><path d="m7.429688 29.324219 22.453124-22.453125c1.03125-1.03125 2.707032-1.03125 3.742188 0l22.453125 22.453125c1.03125 1.035156 1.03125 2.710937 0 3.742187l-22.453125 22.453125c-1.035156 1.035157-2.710938 1.035157-3.742188 0l-22.453124-22.453125c-1.035157-1.03125-1.035157-2.707031 0-3.742187zm0 0" fill="url(#f)"/><path d="m31.753906 5.734375c-.675781 0-1.355468.257813-1.871094.777344l-22.453124 22.453125c-.625.625-.871094 1.476562-.746094 2.28125.085937-.535156.332031-1.046875.746094-1.460938l22.453124-22.453125c1.035157-1.035156 2.703126-1.035156 3.742188 0l22.453125 22.453125c.410156.414063.660156.925782.742187 1.460938.128907-.804688-.121093-1.65625-.742187-2.28125l-22.453125-22.453125c-.519531-.519531-1.195312-.777344-1.871094-.777344zm0 0" fill="#fff" fill-opacity=".392157"/><path d="m31.753906 55.9375c-.675781 0-1.355468-.261719-1.871094-.78125l-22.453124-22.449219c-.625-.625-.871094-1.476562-.746094-2.28125.085937.53125.332031 1.046875.746094 1.460938l22.453124 22.449219c1.035157 1.039062 2.703126 1.039062 3.742188 0l22.453125-22.449219c.410156-.414063.660156-.929688.742187-1.460938.128907.804688-.121093 1.65625-.742187 2.28125l-22.453125 22.449219c-.519531.519531-1.195312.78125-1.871094.78125zm0 0" fill-opacity=".235294"/><path d="m7.296875 28.832031c-1.109375 1.109375-1.109375 2.898438 0 4.007813l22.453125 22.453125c1.105469 1.105469 2.898438 1.105469 4.007812 0l22.453126-22.453125c1.105468-1.109375 1.105468-2.898438 0-4.007813l-22.453126-22.453125c-1.109374-1.105468-2.902343-1.105468-4.007812 0zm.265625.265625 22.453125-22.453125c.964844-.964843 2.511719-.964843 3.476563 0l22.453124 22.453125c.964844.964844.964844 2.511719 0 3.476563l-22.453124 22.453125c-.964844.964844-2.511719.964844-3.476563 0l-22.453125-22.453125c-.964844-.964844-.964844-2.511719 0-3.476563zm0 0" fill="#212121"/><path d="m35.691406 16.996094c-1.101562.019531-1.980468.925781-1.964844 2.027344v7.945312l-8.050781 3.449219c-.734375.3125-1.210937 1.035156-1.210937 1.835937v10.582032c-.007813.71875.371094 1.386718.992187 1.75.621094.363281 1.386719.363281 2.007813 0 .621094-.363282 1-1.03125.992187-1.75v-9.265626l5.269531-2.257812v11.523438c-.011718.722656.367188 1.394531.988282 1.757812s1.390625.363281 2.015625 0c.621093-.363281 1-1.035156.988281-1.757812v-14.25c.03125-.207032.03125-.417969 0-.625v-8.9375c.007812-.539063-.203125-1.058594-.585938-1.441407-.382812-.382812-.902343-.59375-1.441406-.585937zm0 0" fill="url(#g)"/><path d="m35.691406 16.996094c-1.101562.019531-1.980468.925781-1.964844 2.027344v1.03125c-.015624-1.101563.863282-2.007813 1.964844-2.023438.539063-.007812 1.058594.203125 1.441406.582031.382813.382813.59375.902344.585938 1.441407v-1.03125c.007812-.539063-.203125-1.058594-.585938-1.441407-.382812-.382812-.902343-.59375-1.441406-.585937zm-1.964844 9.972656-8.050781 3.449219c-.734375.3125-1.210937 1.035156-1.210937 1.835937v1.03125c0-.796875.476562-1.519531 1.210937-1.835937l8.050781-3.449219zm3.992188.992188v.625c.03125-.207032.03125-.417969 0-.625zm0 0" fill="#fff" fill-opacity=".313726"/><path d="m37.71875 28.847656v.625c.03125-.207031.03125-.417968 0-.625zm-3.992188 2.53125-5.269531 2.257813v.816406l5.269531-2.253906zm-9.261718 11.523438v.820312c-.007813.71875.371094 1.386719.992187 1.75.621094.359375 1.386719.359375 2.007813 0 .621094-.363281 1-1.03125.992187-1.75v-.820312c.007813.71875-.371093 1.386718-.992187 1.75-.621094.363281-1.386719.363281-2.007813 0-.621093-.363282-1-1.03125-.992187-1.75zm9.261718 0v.820312c-.011718.71875.367188 1.390625.988282 1.753906.621094.363282 1.390625.363282 2.015625 0 .621093-.363281 1-1.035156.988281-1.753906v-.820312c.011719.722656-.367188 1.390625-.988281 1.753906-.625.363281-1.394531.363281-2.015625 0s-1-1.03125-.988282-1.753906zm0 0" fill-opacity=".235294"/><path d="m1079.070239 513.848595c-33.303908.590495-59.876175 27.989454-59.403779 61.293362v240.213294l-243.401966 104.281386c-22.202605 9.447917-36.610679 31.296225-36.610679 55.506513v319.930095c-.236198 21.73021 11.219402 41.925133 29.997137 52.908336 18.777735 10.983204 41.925132 10.983204 60.702868 0 18.777735-10.983203 30.233335-31.178126 29.997137-52.908336v-280.130744l159.315503-68.261201v348.391945c-.354297 21.848309 11.101303 42.16133 29.879038 53.144534s42.043231 10.983204 60.939066 0c18.777735-10.983204 30.233335-31.296225 29.879038-53.144534v-430.825022c.944791-6.259246.944791-12.63659 0-18.895835v-270.210431c.236198-16.297657-6.141147-32.004819-17.714845-43.578518-11.573699-11.573698-27.280861-17.951042-43.578518-17.714844zm0 0" fill="none" stroke="#212121" stroke-linecap="round" stroke-linejoin="round" stroke-width="11.338583" transform="scale(.0330761)"/></svg>

<?xml version="1.0" encoding="UTF-8"?>
<svg xmlns="http://www.w3.org/2000/svg" xmlns:xlink="http://www.w3.org/1999/xlink" width="64pt" height="64pt" viewBox="0 0 64 64" version="1.1">
<defs>
<radialGradient id="radial0" gradientUnits="userSpaceOnUse" cx="450.908936" cy="189.579361" fx="450.908936" fy="189.579361" r="21.166656" gradientTransform="matrix(0.000000348341,-0.156265,-0.281277,-0.000000203077,84.415649,127.190665)">
<stop offset="0" style="stop-color:rgb(0%,0%,0%);stop-opacity:0.313726;"/>
<stop offset="0.222222" style="stop-color:rgb(0%,0%,0%);stop-opacity:0.27451;"/>
<stop offset="1" style="stop-color:rgb(0%,0%,0%);stop-opacity:0;"/>
</radialGradient>
<radialGradient id="radial1" gradientUnits="userSpaceOnUse" cx="450.908936" cy="189.579361" fx="450.908936" fy="189.579361" r="21.166656" gradientTransform="matrix(-0.000000348341,0.156265,0.281277,0.000000203077,-20.909582,-15.054958)">
<stop offset="0" style="stop-color:rgb(0%,0%,0%);stop-opacity:0.313726;"/>
<stop offset="0.222222" style="stop-color:rgb(0%,0%,0%);stop-opacity:0.27451;"/>
<stop offset="1" style="stop-color:rgb(0%,0%,0%);stop-opacity:0;"/>
</radialGradient>
<radialGradient id="radial2" gradientUnits="userSpaceOnUse" cx="450.908936" cy="189.579361" fx="450.908936" fy="189.579361" r="21.166656" gradientTransform="matrix(-0.000000348341,-0.156265,0.281277,-0.000000203077,-20.909582,127.190665)">
<stop offset="0" style="stop-color:rgb(0%,0%,0%);stop-opacity:0.313726;"/>
<stop offset="0.222222" style="stop-color:rgb(0%,0%,0%);stop-opacity:0.27451;"/>
<stop offset="1" style="stop-color:rgb(0%,0%,0%);stop-opacity:0;"/>
</radialGradient>
<radialGradient id="radial3" gradientUnits="userSpaceOnUse" cx="450.908936" cy="189.579361" fx="450.908936" fy="189.579361" r="21.166656" gradientTransform="matrix(0.000000348341,0.156265,-0.281277,0.000000203077,84.415646,-15.054959)">
<stop offset="0" style="stop-color:rgb(0%,0%,0%);stop-opacity:0.313726;"/>
<stop offset="0.222222" style="stop-color:rgb(0%,0%,0%);stop-opacity:0.27451;"/>
<stop offset="1" style="stop-color:rgb(0%,0%,0%);stop-opacity:0;"/>
</radialGradient>
<linearGradient id="linear0" gradientUnits="userSpaceOnUse" x1="111.280739" y1="164.552521" x2="395.655518" y2="-119.822243" gradientTransform="matrix(0.0883968,-0.0883968,0.0883968,0.0883968,7.370257,51.718775)">
<stop offset="0" style="stop-color:rgb(100%,65.490198%,14.901961%);stop-opacity:1;"/>
<stop offset="1" style="stop-color:rgb(100%,71.764708%,30.19608%);stop-opacity:1;"/>
</linearGradient>
<linearGradient id="linear1" gradientUnits="userSpaceOnUse" x1="253.999969" y1="244.083328" x2="254" y2="-179.25" gradientTransform="matrix(0.125012,0,0,0.125012,0,26.877566)">
<stop offset="0" style="stop-color:rgb(25.882354%,25.882354%,25.882354%);stop-opacity:1;"/>
<stop offset="1" style="stop-color:rgb(38.039216%,38.039216%,38.039216%);stop-opacity:1;"/>
</linearGradient>
</defs>
<g id="surface1">
<path style=" stroke:none;fill-rule:nonzero;fill:url(#radial0);" d="M 31.753906 56.066406 L 37.046875 56.066406 L 37.046875 53.421875 L 31.753906 53.421875 Z M 31.753906 56.066406 "/>
<path style=" stroke:none;fill-rule:nonzero;fill:url(#radial1);" d="M 31.753906 56.066406 L 26.460938 56.066406 L 26.460938 58.714844 L 31.753906 58.714844 Z M 31.753906 56.066406 "/>
<path style=" stroke:none;fill-rule:nonzero;fill:url(#radial2);" d="M 31.753906 56.066406 L 26.460938 56.066406 L 26.460938 53.421875 L 31.753906 53.421875 Z M 31.753906 56.066406 "/>
<path style=" stroke:none;fill-rule:nonzero;fill:url(#radial3);" d="M 31.753906 56.066406 L 37.046875 56.066406 L 37.046875 58.714844 L 31.753906 58.714844 Z M 31.753906 56.066406 "/>
<path style=" stroke:none;fill-rule:nonzero;fill:url(#linear0);" d="M 7.429688 29.324219 L 29.882812 6.871094 C 30.914062 5.839844 32.589844 5.839844 33.625 6.871094 L 56.078125 29.324219 C 57.109375 30.359375 57.109375 32.035156 56.078125 33.066406 L 33.625 55.519531 C 32.589844 56.554688 30.914062 56.554688 29.882812 55.519531 L 7.429688 33.066406 C 6.394531 32.035156 6.394531 30.359375 7.429688 29.324219 Z M 7.429688 29.324219 "/>
<path style=" stroke:none;fill-rule:nonzero;fill:rgb(100%,100%,100%);fill-opacity:0.392157;" d="M 31.753906 5.734375 C 31.078125 5.734375 30.398438 5.992188 29.882812 6.511719 L 7.429688 28.964844 C 6.804688 29.589844 6.558594 30.441406 6.683594 31.246094 C 6.769531 30.710938 7.015625 30.199219 7.429688 29.785156 L 29.882812 7.332031 C 30.917969 6.296875 32.585938 6.296875 33.625 7.332031 L 56.078125 29.785156 C 56.488281 30.199219 56.738281 30.710938 56.820312 31.246094 C 56.949219 30.441406 56.699219 29.589844 56.078125 28.964844 L 33.625 6.511719 C 33.105469 5.992188 32.429688 5.734375 31.753906 5.734375 Z M 31.753906 5.734375 "/>
<path style=" stroke:none;fill-rule:nonzero;fill:rgb(0%,0%,0%);fill-opacity:0.235294;" d="M 31.753906 55.9375 C 31.078125 55.9375 30.398438 55.675781 29.882812 55.15625 L 7.429688 32.707031 C 6.804688 32.082031 6.558594 31.230469 6.683594 30.425781 C 6.769531 30.957031 7.015625 31.472656 7.429688 31.886719 L 29.882812 54.335938 C 30.917969 55.375 32.585938 55.375 33.625 54.335938 L 56.078125 31.886719 C 56.488281 31.472656 56.738281 30.957031 56.820312 30.425781 C 56.949219 31.230469 56.699219 32.082031 56.078125 32.707031 L 33.625 55.15625 C 33.105469 55.675781 32.429688 55.9375 31.753906 55.9375 Z M 31.753906 55.9375 "/>
<path style=" stroke:none;fill-rule:nonzero;fill:rgb(12.941177%,12.941177%,12.941177%);fill-opacity:1;" d="M 7.296875 28.832031 C 6.1875 29.941406 6.1875 31.730469 7.296875 32.839844 L 29.75 55.292969 C 30.855469 56.398438 32.648438 56.398438 33.757812 55.292969 L 56.210938 32.839844 C 57.316406 31.730469 57.316406 29.941406 56.210938 28.832031 L 33.757812 6.378906 C 32.648438 5.273438 30.855469 5.273438 29.75 6.378906 Z M 7.5625 29.097656 L 30.015625 6.644531 C 30.980469 5.679688 32.527344 5.679688 33.492188 6.644531 L 55.945312 29.097656 C 56.910156 30.0625 56.910156 31.609375 55.945312 32.574219 L 33.492188 55.027344 C 32.527344 55.992188 30.980469 55.992188 30.015625 55.027344 L 7.5625 32.574219 C 6.597656 31.609375 6.597656 30.0625 7.5625 29.097656 Z M 7.5625 29.097656 "/>
<path style=" stroke:none;fill-rule:nonzero;fill:url(#linear1);" d="M 35.691406 16.996094 C 34.589844 17.015625 33.710938 17.921875 33.726562 19.023438 L 33.726562 26.96875 L 25.675781 30.417969 C 24.941406 30.730469 24.464844 31.453125 24.464844 32.253906 L 24.464844 42.835938 C 24.457031 43.554688 24.835938 44.222656 25.457031 44.585938 C 26.078125 44.949219 26.84375 44.949219 27.464844 44.585938 C 28.085938 44.222656 28.464844 43.554688 28.457031 42.835938 L 28.457031 33.570312 L 33.726562 31.3125 L 33.726562 42.835938 C 33.714844 43.558594 34.09375 44.230469 34.714844 44.59375 C 35.335938 44.957031 36.105469 44.957031 36.730469 44.59375 C 37.351562 44.230469 37.730469 43.558594 37.71875 42.835938 L 37.71875 28.585938 C 37.75 28.378906 37.75 28.167969 37.71875 27.960938 L 37.71875 19.023438 C 37.726562 18.484375 37.515625 17.964844 37.132812 17.582031 C 36.75 17.199219 36.230469 16.988281 35.691406 16.996094 Z M 35.691406 16.996094 "/>
<path style=" stroke:none;fill-rule:nonzero;fill:rgb(100%,100%,100%);fill-opacity:0.313726;" d="M 35.691406 16.996094 C 34.589844 17.015625 33.710938 17.921875 33.726562 19.023438 L 33.726562 20.054688 C 33.710938 18.953125 34.589844 18.046875 35.691406 18.03125 C 36.230469 18.023438 36.75 18.234375 37.132812 18.613281 C 37.515625 18.996094 37.726562 19.515625 37.71875 20.054688 L 37.71875 19.023438 C 37.726562 18.484375 37.515625 17.964844 37.132812 17.582031 C 36.75 17.199219 36.230469 16.988281 35.691406 16.996094 Z M 33.726562 26.96875 L 25.675781 30.417969 C 24.941406 30.730469 24.464844 31.453125 24.464844 32.253906 L 24.464844 33.285156 C 24.464844 32.488281 24.941406 31.765625 25.675781 31.449219 L 33.726562 28 Z M 37.71875 27.960938 L 37.71875 28.585938 C 37.75 28.378906 37.75 28.167969 37.71875 27.960938 Z M 37.71875 27.960938 "/>
<path style=" stroke:none;fill-rule:nonzero;fill:rgb(0%,0%,0%);fill-opacity:0.235294;" d="M 37.71875 28.847656 L 37.71875 29.472656 C 37.75 29.265625 37.75 29.054688 37.71875 28.847656 Z M 33.726562 31.378906 L 28.457031 33.636719 L 28.457031 34.453125 L 33.726562 32.199219 Z M 24.464844 42.902344 L 24.464844 43.722656 C 24.457031 44.441406 24.835938 45.109375 25.457031 45.472656 C 26.078125 45.832031 26.84375 45.832031 27.464844 45.472656 C 28.085938 45.109375 28.464844 44.441406 28.457031 43.722656 L 28.457031 42.902344 C 28.464844 43.621094 28.085938 44.289062 27.464844 44.652344 C 26.84375 45.015625 26.078125 45.015625 25.457031 44.652344 C 24.835938 44.289062 24.457031 43.621094 24.464844 42.902344 Z M 33.726562 42.902344 L 33.726562 43.722656 C 33.714844 44.441406 34.09375 45.113281 34.714844 45.476562 C 35.335938 45.839844 36.105469 45.839844 36.730469 45.476562 C 37.351562 45.113281 37.730469 44.441406 37.71875 43.722656 L 37.71875 42.902344 C 37.730469 43.625 37.351562 44.292969 36.730469 44.65625 C 36.105469 45.019531 35.335938 45.019531 34.714844 44.65625 C 34.09375 44.292969 33.714844 43.625 33.726562 42.902344 Z M 33.726562 42.902344 "/>
<path style="fill:none;stroke-width:11.338583;stroke-linecap:round;stroke-linejoin:round;stroke:rgb(12.941177%,12.941177%,12.941177%);stroke-opacity:1;stroke-miterlimit:4;" d="M 1079.070239 513.848595 C 1045.766331 514.43909 1019.194064 541.838049 1019.66646 575.141957 L 1019.66646 815.355251 L 776.264494 919.636637 C 754.061889 929.084554 739.653815 950.932862 739.653815 975.14315 L 739.653815 1295.073245 C 739.417617 1316.803455 750.873217 1336.998378 769.650952 1347.981581 C 788.428687 1358.964785 811.576084 1358.964785 830.35382 1347.981581 C 849.131555 1336.998378 860.587155 1316.803455 860.350957 1295.073245 L 860.350957 1014.942501 L 1019.66646 946.6813 L 1019.66646 1295.073245 C 1019.312163 1316.921554 1030.767763 1337.234575 1049.545498 1348.217779 C 1068.323233 1359.200983 1091.588729 1359.200983 1110.484564 1348.217779 C 1129.262299 1337.234575 1140.717899 1316.921554 1140.363602 1295.073245 L 1140.363602 864.248223 C 1141.308393 857.988977 1141.308393 851.611633 1140.363602 845.352388 L 1140.363602 575.141957 C 1140.5998 558.8443 1134.222455 543.137138 1122.648757 531.563439 C 1111.075058 519.989741 1095.367896 513.612397 1079.070239 513.848595 Z M 1079.070239 513.848595 " transform="matrix(0.0330761,0,0,0.0330761,0,0)"/>
</g>
</svg>
